X: 598
T: Acrobat, The
R: hornpipe
M: 4/4
K: Dmajor
AG|:FAde fdba|(3gec (3gec c'2c'b|a^g=ge cc'ba|^gaba fdAG|
FAde fdba|(3gec (3gec c'2c'b|a^g=ge cc'bc|1 d2f2 d2AG:|2 (3dcd f2d2 ed||
cefe c'a^ga|fdfa d'b^ab|^ge^de f2g2|(3ac'b (3a^gf e2 (3fed|
cefe c'a^ga|fdfa d'b^ab|^ge^de f2g2|1 (3aba ^g2 a2ed:|2 (3aba ^g2 a2=g2||

